app/images/icons/notion.svg

<svg fill="none" height="22" viewBox="0 0 18 22" width="18" xmlns="http://www.w3.org/2000/svg" xmlns:xlink="http://www.w3.org/1999/xlink"><clipPath id="a"><path d="m1 3h16v16h-16z"/></clipPath><g clip-path="url(#a)"><path clip-rule="evenodd" d="m11.0954 3.03649-8.87985.65343c-.716.06197-.96555.52875-.96555 1.08832v9.70526c0 .4361.15552.8088.5296 1.3069l2.08741 2.7063c.34288.4358.65446.529 1.30918.4978l10.31211-.6222c.8722-.062 1.1217-.4666 1.1217-1.151v-10.91863c0-.35376-.1401-.45595-.553-.75718-.0227-.01653-.0463-.0337-.0706-.05157l-2.8346-1.99078c-.6854-.49751-.9659-.56011-2.0564-.46665zm-5.6854 3.08708c-.84192.0568-1.03323.06971-1.51136-.31845l-1.21584-.96427c-.124-.12469-.06181-.28021.24955-.31109l8.53705-.62219c.7163-.06234 1.0901.18694 1.3707.40454l1.4642 1.05776c.0624.03098.2179.21738.0309.21738l-8.81651.52902zm-.98203 11.00423v-9.26951c0-.40432.12464-.59109.4983-.6225l10.12543-.59083c.3435-.03109.499.18683.499.59083v9.20741c0 .4047-.0625.7473-.6235.7781l-9.68931.5603c-.56074.0308-.80992-.1556-.80992-.6538zm9.56533-8.77228c.0621.28027 0 .56021-.281.59173l-.4669.09296v6.84339c-.4053.2177-.7791.3422-1.0905.3422-.4987 0-.6236-.1557-.9971-.6221l-3.05377-4.7904v4.6349l.96629.2179s0 .5597-.77957.5597l-2.14923.1245c-.06245-.1245 0-.4354.21797-.4977l.56086-.1553v-6.12813l-.77872-.06234c-.06246-.28022.09306-.68427.5296-.71563l2.30565-.15531 3.17802 4.85271v-4.29287l-.8103-.0929c-.0622-.34262.1867-.59136.4983-.62224z" fill="#000" fill-rule="evenodd"/></g></svg>

<svg width="18" height="22" viewBox="0 0 18 22" fill="none" xmlns="http://www.w3.org/2000/svg">
<g clip-path="url(#clip0)">
<path fill-rule="evenodd" clip-rule="evenodd" d="M11.0954 3.03649L2.21555 3.68992C1.49955 3.75189 1.25 4.21867 1.25 4.77824V14.4835C1.25 14.9196 1.40552 15.2923 1.7796 15.7904L3.86701 18.4967C4.20989 18.9325 4.52147 19.0257 5.17619 18.9945L15.4883 18.3723C16.3605 18.3103 16.61 17.9057 16.61 17.2213V6.30267C16.61 5.94891 16.4699 5.84672 16.057 5.54549C16.0343 5.52896 16.0107 5.51179 15.9864 5.49392L13.1518 3.50314C12.4664 3.00563 12.1859 2.94303 11.0954 3.03649ZM5.41 6.12357C4.56808 6.18037 4.37677 6.19328 3.89864 5.80512L2.6828 4.84085C2.5588 4.71616 2.62099 4.56064 2.93235 4.52976L11.4694 3.90757C12.1857 3.84523 12.5595 4.09451 12.8401 4.31211L14.3043 5.36987C14.3667 5.40085 14.5222 5.58725 14.3352 5.58725L5.51869 6.11627L5.41 6.12357ZM4.42797 17.1278V7.85829C4.42797 7.45397 4.55261 7.2672 4.92627 7.23579L15.0517 6.64496C15.3952 6.61387 15.5507 6.83179 15.5507 7.23579V16.4432C15.5507 16.8479 15.4882 17.1905 14.9272 17.2213L5.23789 17.7816C4.67715 17.8124 4.42797 17.626 4.42797 17.1278ZM13.9933 8.35552C14.0554 8.63579 13.9933 8.91573 13.7123 8.94725L13.2454 9.04021V15.8836C12.8401 16.1013 12.4663 16.2258 12.1549 16.2258C11.6562 16.2258 11.5313 16.0701 11.1578 15.6037L8.10403 10.8133V15.4482L9.07032 15.6661C9.07032 15.6661 9.07032 16.2258 8.29075 16.2258L6.14152 16.3503C6.07907 16.2258 6.14152 15.9149 6.35949 15.8526L6.92035 15.6973V9.56917L6.14163 9.50683C6.07917 9.22661 6.23469 8.82256 6.67123 8.7912L8.97688 8.63589L12.1549 13.4886V9.19573L11.3446 9.10283C11.2824 8.76021 11.5313 8.51147 11.8429 8.48059L13.9933 8.35552Z" fill="black"/>
</g>
<defs>
<clipPath id="clip0">
<path d="M1 3H17V19H1V3Z" fill="white"/>
</clipPath>
</defs>
</svg>
